X:1
T:Glenfiddich
B:William Marshall A Collection Of Strathspey Reels (1781)
C:William Marshall
L:1/8
M:C
O:Scotland
R:Strathspey
Z:Clark Bernst + Richard Robinson
%%Page:4 - 2
F:http://richardrobinson.tunebook.org.uk/tune/6578
%%TBL:{"version":1,"type":"tune","id":"6578"}
K:A
%%staves {1 2}
V:1
|:c | \
[A,EA]2 (c>A) e>Ac>A | E>Ac>A B2 (B>c) | \
A/A/A (!trill!c3/A/) e>Ac>A | F>d!trill!cB A2 A ::
f/g/ | \
a>ef>d e>cA>f | a>ffb !trill!g2 ef/g/ | \
a>ef>d e<c !trill!BA | F>d!trill!cB A2 A ::
c | \
A>E(!trill!F3/E/) (A>E)(!trill!F3/E/) | D>FC>E B,2 B,2 | \
A>E(!trill!F3/E/) (A>E)(!trill!F3/E/) | F>dc>B A2 A ::
d | \
!trill!c3/d/ e<c a<ce<c | f<de<c B2 (Bd) | \
!trill!c>d e<c f<de<c | F>d!trill!cB A2 A :|
V:2 middle=d clef=bass
L:1/4
|:\
z/ | aaAA | aAee | aacc | deAA/ :: \
z/ | cdcA | cdeE | cdcA | deAA/ :: \
z/ | AAAA | AAee | AAAA | deAA/ :: \
z/ | Aaaa | aaee | aAdc | deAA/ :|

